X: 21
T:Kennedy's Bridal Jig (#131)
M:6/8
L:1/8
S:Officer James Kennedy, Chicago
K:G
D|G3 BGB|def gfe|dBG GFG|AFD DFA|
G3 BGB|def gfe|dBG FGA|BGG G2:|
|A|Bee edB|def g2 a|bag agf|gfg edB|
Bee edB|def g2 a|bag agf|gfg e3|
Bee edB|def g2 a|bag agf|gfg edB|
G3 BGB|def gfe|dBGF GA|BGG G2||

